X: 1
T: Maids Of Ardnaree, The
M: 4/4
L: 1/8
R: reel
K: Dmaj
D2 DE FGAF | G2 GA BGAF | D2 DE FGAB |1 d2 =cA BGAF :|2 d2 =cA AG G2 ||
fdde fgaf | g2 ga bgag | fdde fgag | fd=cA AG G2 |
 fdde fgaf | gfag fa a2 | abag fgag | fd=cA AG G2 |
